public/icons/arrow-up.svg

<svg xmlns="http://www.w3.org/2000/svg" width="24" height="24" fill="none"><path fill="" d="M10 0h4v4h4v4h-4v16h-4V8H6V4h4V0ZM6 8v4H2V8h4ZM18 8v4h4V8h-4Z"/></svg>

<svg width="24" height="24" viewBox="0 0 24 24" fill="none" xmlns="http://www.w3.org/2000/svg">
<path d="M10 0H14V4H18V8H14V24H10V8H6V4H10V0Z" fill="#F0622C"/>
<path d="M6 8V12H2V8H6Z" fill="#F0622C"/>
<path d="M18 8H22V12H18V8Z" fill="#F0622C"/>
</svg>
